X:1557
T:Greencastle Hornpipe., The
T:crannciuil caislean-glais.
N:"Collected from F. O'Neill"
R:Hornpipe
B:O'Neill's 1557
M:C|
K:G
(dc) \
|BGDG BGDG|3gag fg e2dc|BGDG BGDG|dcBc A2 dc|
BGDG BGDG|3gag fg e2 dc|Bdfe dcAF|G2 GG G2 :|
(ga) \
|bagf efga|bagf e2 fg|agfe defg|agfe d2 3def|
gfgd e2d2|dcBAB cdef|gfgd ecAF|G2GG G2 :|
